icons/wrap-16.svg

<svg width="16" height="16" viewBox="0 0 16 16" fill="none" xmlns="http://www.w3.org/2000/svg">
<path d="M1.75 7C1.55109 7 1.36032 7.07902 1.21967 7.21967C1.07902 7.36032 1 7.55109 1 7.75C1 7.94891 1.07902 8.13968 1.21967 8.28033C1.36032 8.42098 1.55109 8.5 1.75 8.5H11.75C12.2141 8.5 12.6592 8.68437 12.9874 9.01256C13.3156 9.34075 13.5 9.78587 13.5 10.25C13.5 10.7141 13.3156 11.1592 12.9874 11.4874C12.6592 11.8156 12.2141 12 11.75 12H10.286V11.536C10.2859 11.41 10.2507 11.2865 10.1845 11.1793C10.1182 11.0721 10.0234 10.9855 9.91066 10.9292C9.79795 10.8728 9.67178 10.849 9.54627 10.8602C9.42076 10.8715 9.30087 10.9175 9.2 10.993L7.581 12.207C7.49693 12.2704 7.42872 12.3524 7.38175 12.4466C7.33478 12.5409 7.31033 12.6447 7.31033 12.75C7.31033 12.8553 7.33478 12.9591 7.38175 13.0534C7.42872 13.1476 7.49693 13.2296 7.581 13.293L9.2 14.507C9.30087 14.5825 9.42076 14.6285 9.54627 14.6398C9.67178 14.651 9.79795 14.6272 9.91066 14.5708C10.0234 14.5145 10.1182 14.4279 10.1845 14.3207C10.2507 14.2135 10.2859 14.09 10.286 13.964V13.5H11.75C12.612 13.5 13.4386 13.1576 14.0481 12.5481C14.6576 11.9386 15 11.112 15 10.25C15 9.38805 14.6576 8.5614 14.0481 7.9519C13.4386 7.34241 12.612 7 11.75 7H1.75Z" fill="black"/>
<path d="M1 2.75C1 2.55109 1.07902 2.36032 1.21967 2.21967C1.36032 2.07902 1.55109 2 1.75 2H14.25C14.4489 2 14.6397 2.07902 14.7803 2.21967C14.921 2.36032 15 2.55109 15 2.75C15 2.94891 14.921 3.13968 14.7803 3.28033C14.6397 3.42098 14.4489 3.5 14.25 3.5H1.75C1.55109 3.5 1.36032 3.42098 1.21967 3.28033C1.07902 3.13968 1 2.94891 1 2.75ZM1.75 12H5.25C5.44891 12 5.63968 12.079 5.78033 12.2197C5.92098 12.3603 6 12.5511 6 12.75C6 12.9489 5.92098 13.1397 5.78033 13.2803C5.63968 13.421 5.44891 13.5 5.25 13.5H1.75C1.55109 13.5 1.36032 13.421 1.21967 13.2803C1.07902 13.1397 1 12.9489 1 12.75C1 12.5511 1.07902 12.3603 1.21967 12.2197C1.36032 12.079 1.55109 12 1.75 12Z" fill="black"/>
</svg>

<svg xmlns="http://www.w3.org/2000/svg" width="16" height="16" viewBox="0 0 16 16"><path d="M1.75 7a.747.747 0 0 0-.53.22.747.747 0 0 0 0 1.06c.14.141.331.22.53.22h10c.464 0 .909.184 1.237.513a1.746 1.746 0 0 1 0 2.474A1.746 1.746 0 0 1 11.75 12h-1.464v-.464a.675.675 0 0 0-.375-.607.687.687 0 0 0-.711.064l-1.619 1.214a.679.679 0 0 0 0 1.086L9.2 14.507a.683.683 0 0 0 .711.064.685.685 0 0 0 .375-.607V13.5h1.464A3.247 3.247 0 0 0 15 10.25 3.247 3.247 0 0 0 11.75 7h-10ZM1 2.75c0-.199.079-.39.22-.53A.747.747 0 0 1 1.75 2h12.5c.199 0 .39.079.53.22a.747.747 0 0 1 0 1.06.747.747 0 0 1-.53.22H1.75a.747.747 0 0 1-.53-.22.747.747 0 0 1-.22-.53ZM1.75 12h3.5c.199 0 .39.079.53.22a.747.747 0 0 1 0 1.06.747.747 0 0 1-.53.22h-3.5a.747.747 0 0 1-.53-.22.747.747 0 0 1 0-1.06.747.747 0 0 1 .53-.22Z"/></svg>
